packages/assets/static/images/icons/map.svg

<svg width="24" height="24" viewBox="0 0 24 24" xmlns="http://www.w3.org/2000/svg">
<path d="M21.4613 4.65842C21.3714 4.58842 21.2668 4.53979 21.1554 4.51624C21.0439 4.49269 20.9286 4.49482 20.8181 4.52248L15.0872 5.95498L9.33563 3.07873C9.17537 2.9988 8.99181 2.97885 8.81812 3.02248L2.81812 4.52248C2.65587 4.56304 2.51183 4.65667 2.40889 4.78848C2.30595 4.9203 2.25003 5.08274 2.25 5.24998V18.75C2.25002 18.8639 2.27601 18.9764 2.32599 19.0788C2.37598 19.1812 2.44864 19.2709 2.53847 19.341C2.62831 19.4112 2.73294 19.4599 2.84442 19.4836C2.95591 19.5072 3.07131 19.5051 3.18187 19.4775L8.91281 18.045L14.6644 20.9212C14.7688 20.9727 14.8836 20.9996 15 21C15.0613 20.9999 15.1224 20.9924 15.1819 20.9775L21.1819 19.4775C21.3441 19.4369 21.4882 19.3433 21.5911 19.2115C21.694 19.0797 21.75 18.9172 21.75 18.75V5.24998C21.75 5.13591 21.724 5.02334 21.674 4.92083C21.624 4.81832 21.5512 4.72857 21.4613 4.65842ZM9.75 4.96311L14.25 7.21311V19.0369L9.75 16.7869V4.96311ZM3.75 5.83592L8.25 4.71092V16.664L3.75 17.789V5.83592ZM20.25 18.164L15.75 19.289V7.33592L20.25 6.21092V18.164Z"/>
</svg>

<svg viewBox="0 0 24 24" xmlns="http://www.w3.org/2000/svg" aria-hidden="true" fill="currentColor"><path d="M21.461 4.658a.75.75 0 0 0-.643-.136l-5.73 1.433-5.752-2.876a.75.75 0 0 0-.518-.057l-6 1.5a.75.75 0 0 0-.568.728v13.5a.75.75 0 0 0 .932.727l5.73-1.432 5.752 2.876a.77.77 0 0 0 .518.056l6-1.5a.75.75 0 0 0 .568-.727V5.25a.75.75 0 0 0-.289-.592M9.75 4.963l4.5 2.25v11.824l-4.5-2.25zm-6 .873 4.5-1.125v11.953l-4.5 1.125zm16.5 12.328-4.5 1.125V7.336l4.5-1.125z"/></svg>
